**kern	**kern
*staff2	*staff1
*clefF4	*clefG2
*k[f#]	*k[f#]
*M6/8	*M6/8
*G:	*G:
8r	16ddLL
.	16dJJ
=135	=135
16FF#LL	16aLL 16cc
16D	16d
16C#	16c#
16D	16d
16FF#	16a 16cc
16DJJ	16dJJ
16GGLL	16gLL 16b
16D	16d
16C#	16c#
16D	16d
16GG	16g 16b
16DJJ	16dJJ
=136	=136
16DDLL	16f#LL 16a
16D	16d
16C#	16c#
16D	16d
16C#	16c#
16DJJ	16dJJ
16CLL	16f#LL
16D	16d
16BB	16g
16D	16d
16AA	16f# 16a
16DJJ	16dJJ
=137	=137
16GGLL	16bLL
16G	16d
16D	16a#
16G	16d
16GG	16b
16GJJ	16dJJ
16AALL	16ccLL
16A	16d
16D	16b
16A	16d
16AA	16cc
16AJJ	16dJJ
=138	=138
16BBLL	16ddLL
16B	16d
16G	16cc#
16B	16d
16BB	16dd
16BJJ	16dJJ
16CLL	16eeLL
16c	16e
16G	16dd#
16c	16e
16C	16ee
16cJJ	16eJJ
=139	=139
16DLL	16eeLL
16B	16d
16G	16g
16B	16d
16D	16g
16BJJ	16dJJ
16DLL	16gLL
16c	16d
16F#	16b
16c	16d
16D	16a
16cJJ	16dJJ
=140	=140
4G	16gLL
.	16d
.	16B
.	16d
8r	16B
.	16GJJ
4r	16F#LL
.	16A
.	16d
.	16A
8D	16F#
.	16AJJ
=141	=141
4BB	16GLL
.	16B
.	16d
.	16B
8BB	16G
.	16BJJ
4AA	16F#LL
.	16c
.	16d
.	16c
8AA	16F#
.	16cJJ
=142	=142
4GG	16GLL
.	16B
.	16d
.	16B
8r	16G
.	16BJJ
*-	*-
